X:1
T:Title
%%score { ( 1 3 ) | 2 }
L:1/8
M:4/4
K:Eb
V:1 treble nm="Grand Piano"
V:3 treble 
V:2 bass 
V:1
 z4 z2[Q:1/4=100] [GB]2 | [GB]3 G AGFG | A6 c2 | [Fd]3 [Ec] [DB][Dc][FB][FA] |[M:3/4] [EG]6 | %5
[M:1/4] [GB]2 |[M:4/4] [Ge]3 [Ge] fede | c6 c2 | B3 G [Dc][DB][DA][DF] |[M:5/8] E-E- E3 | %10
[M:3/8] Bcd |[M:4/4] A6 z2 | G4 z4 | z DDD Ddc=A |[M:17/16] B-[DB-][EB-][EB][FB]3/2dfe | %15
[M:4/4] B6 z2 | c6 z2 | B6 z2 |[M:3/4] E6 |] %19
V:2
 z4 z2 [E,E]2 | [E,E]3 [E,B,E] [E,CE][E,B,E][A,C][G,C=E] | [F,CF]6 [F,A,F]2 | %3
 [B,,A,]3 [B,,A,] [B,,B,][B,,B,][D,B,][D,B,] |[M:3/4] [E,B,]6 |[M:1/4] [E,E]2 | %6
[M:4/4] [E,B,]3 [E,B,][K:treble] [G,=B,F][G,B,F][G,B,F][G,B,F] | [A,CE]6 [=A,E_G]2 | %8
 [B,EG]3[K:bass] [B,E] [B,,F,][B,,F,][B,,B,][B,,A,] |[M:5/8] [E,G,]-[E,G,]- [E,G,]3 |[M:3/8] z3 | %11
[M:4/4] z [B,,F,][B,,F,][B,,F,] .[B,,F,]2 z2 | z [E,B,][E,B,][E,B,] .[E,B,E]2 z2 | %13
 z [F,B,][F,B,][F,B,] [F,B,][F,B,F][F,=A,E][F,CE] | %14
[M:17/16] [B,,B,][B,,F,][B,,G,][B,,G,][D,A,]3/2 z/ z/ z/ z/ z | %15
[M:4/4] z [E,E][E,E][E,E] .[E,E]2 z2 | z[K:treble] [A,E][A,E][A,E] [A,E][A,CA][=A,D_G][A,EG] | %17
 [B,EG][K:bass][B,E][B,E][G,E] [E,E][B,,G,][B,,F,][B,,A,] | %18
[M:3/4] [E,G,][E,G,] [E,A,][E,A,] [E,G,]2 |] %19
V:3
 x8 | x8 | x8 | x8 |[M:3/4] x6 |[M:1/4] x2 |[M:4/4] x8 | x8 | x8 |[M:5/8] x5 |[M:3/8] x3 | %11
[M:4/4] z DDD DBcd | z EEE GB=AG | F6 z2 |[M:17/16] .D3/2 z/ z/ z/ z/ z/ z/ z/ z/ z/ z/ z/ z/ z | %15
[M:4/4] z GGG GeB=B | z AAA Aedc | z GGG G[Ec][DA][DF] |[M:3/4] z B, CC B,2 |] %19

